src/main/resources/icons/IdeTalkCoreIcons/ideTalk/offline.svg

<svg xmlns="http://www.w3.org/2000/svg" width="16" height="16" viewBox="0 0 16 16">
  <path fill="#9AA7B0" fill-rule="evenodd" d="M8,8 C6.06625,8 4.5,6.43375 4.5,4.5 C4.5,2.56625 6.06625,1 8,1 C9.93375,1 11.5,2.56625 11.5,4.5 C11.5,6.43375 9.93375,8 8,8 Z M8,7 C9.38125,7 10.5,5.88125 10.5,4.5 C10.5,3.11875 9.38125,2 8,2 C6.61875,2 5.5,3.11875 5.5,4.5 C5.5,5.88125 6.61875,7 8,7 Z M8,9.75 C10.33625,9.75 15,10.9225 15,13.25 L15,15 L1,15 L1,13.25 C1,10.9225 5.66375,9.75 8,9.75 Z M8,10.75 C5.9975,10.75 2,11.675833 2,12.9166667 L2,14 L14,14 L14,12.9166667 C14,11.775833 10.0025,10.75 8,10.75 Z"/>
</svg>

<svg xmlns="http://www.w3.org/2000/svg" width="16" height="16" viewBox="0 0 16 16"><rect id="frame" width="16" height="16" fill="none"/><path fill="#9AA7B0" fill-rule="evenodd" d="M8 8a3.499 3.499 0 0 1-3.5-3.5C4.5 2.566 6.066 1 8 1s3.5 1.566 3.5 3.5S9.934 8 8 8zm0-1a2.5 2.5 0 1 0 .001-4.999A2.5 2.5 0 0 0 8 7zm0 2.75c2.336 0 7 1.172 7 3.5V15H1v-1.75c0-2.328 4.664-3.5 7-3.5zm0 1c-2.003 0-6 .926-6 2.167V14h12v-1.083c0-1.141-3.998-2.167-6-2.167z"/></svg>
